X:237
T:Scarce o' Tatties
C:Joe Buchanan's Scottish Tome - Page 297.3
I:297 3
Z:Carl Allison
R:Jig
L:1/8
M:6/8
K:C
"Am"Aee e^fg | "Am"e>dB "G"d>BG | "Am"A>ee e>^fg | "Em"e>dB "Am"A3 |
"Am"aaa "C"g>aa | "D"^f>gf "Am"e>AA | "Am"A>ee e>^fg | "Em"e>dB "Am"A3 :|
"Am"aeg a3 | "Am"g2 ^f e>AA | "Am"a>eg a2 e | "D"g>a^f "Em"e3 |
"Am"eee "C"A>AA | "D"d>^ff f>ee | "Am"A>ee e>^fg | "Em"e>dB "Am"A3 :|

